X:1
T:I’ll Stand by until the Morning
T:James McGranahan
T:I’ll Stand by until the Morning
T:Public Domain
T:Public Domain
C:James McGranahan
Z:Public Domain
%%score ( 1 2 ) ( 3 4 )
L:1/8
M:4/4
K:Eb
V:1 treble 
V:2 treble 
V:3 bass 
V:4 bass 
V:1
 [GB]3 [^F=A] [GB]>[FA] [GB]>[FA] | [GB]4 [EG]4 | [Ec]3 [EB] [DA]2 [EG]2 | [DF]8 | %4
w: 1.~Fierce and wild the storm is|rag- ing|Round a help- less|bark,|
w: 2.~Wear- y, help- less hope- less|sea- men|Faint- ing on the|deck,|
w: 3.~On a wild and storm- y|o- cean,|Sink- ing ’neath the|wave,|
w: 4.~Dar- ing death thy soul to|res- cue,|He in love has|come,|
 [FA]3 [=EG] [FA]>[EG] [FA]>[EG] | [FA]4 [DF]4 | [Bd]3 [Ac] [GB]2 [FA]2 | [EG]6 z2 || %8
w: On to doom ’tis swift- ly|driv- ing,|O’er the wa- ters|dark!|
w: With what joy they hail their|Sav- ior,|As He hails their|wreck!|
w: Souls that per- ish heed the|mes- sage,|Christ has come to|save!|
w: Leave the wreck and in Him|trust- ing,|Thou shalt reach thy|home!|
"^Refrain" (G2 G2 (3BG)A (3(Bc)d | (G2 G2) ([GB]2 G2) | (A2 A2 (3cA)c (3(ed)c | (G2 G2 G2) z2 | %12
w: ||||
w: Joy, * * * be- hold * the|the * mes- *|hear, * * * “I’ll stand * by|morn- * *|
w: ||||
w: ||||
 [Ge]2 [Be]2 [Ae]>[Ae] [Ad]>[Ac] | [EB]4 [EG]2 [GB]2 | [Ad]3 [Ac] [GB]>[FA] [EG]>[DF] | %15
w: |||
w: I’ve come to save you, do|not fear. Yes,|I’ll stand by un- til the|
w: |||
w: |||
 ([EG]4 [GB]2) (3(Bcd) | [Ge]2 [Be]2 [Ae]>[Ae] [Ad]>[Ac] | [GB]4 [EG]2 [GB]2 | %18
w: |||
w: morn- * ing, * *|I’ve come to save you, do|not fear.” *|
w: |||
w: |||
 [Ad]3 [Ac] [GB]>[FA] [EG]>[DF] | (E2 B,>C B,4) |] %20
w: ||
w: ||
w: ||
w: ||
V:2
 x8 | x8 | x8 | x8 | x8 | x8 | x8 | x8 || B4- G2 G2 | e4 x4 | c4- A2 A2 | B6 x2 | x8 | x8 | x8 | %15
w: |||||||||||||||
w: ||||||||Sav- ior, Joy,|sage|un- til the|ing,||||
 x8 | x8 | x8 | x8 | E8 |] %20
w: |||||
w: |||||
V:3
 [E,B,]3 [E,C] [E,B,]>[E,C] [E,B,]>[E,C] | [E,B,]4 [E,B,]4 | A,3 [G,B,] [F,B,]2 [E,B,]2 | %3
w: ~ ~ ~ ~ ~ ~|~ ~|~ ~ ~ ~|
 [B,,B,]8 | [B,,B,]3 [B,,B,] [B,,B,]>[B,,B,] [B,,B,]>[B,,B,] | [B,,B,]4 [B,,B,]4 | %6
w: ~|~ ~ ~ ~ ~ ~|~ ~|
 [B,,B,]3 [B,,B,] [B,,B,]2 [B,,B,]2 | [E,B,]6 z2 || [E,E]2 [E,E]2 [E,E]2 [E,E]2 | %9
w: ~ ~ ~ ~|Joy,|O joy, be- hold|
 [E,B,]2 [E,B,]2 [E,B,]2 [E,B,]2 | [A,,E]2 [A,,E]2 [A,,E]2 [A,,E]2 | [E,E]2 [E,E]2 [E,E]2 z2 | %12
w: the Sav- ior, Joy,|O joy, the mes-|sage hear, ~|
 [E,B,]2 [_D,G,]2 [C,A,]>[C,A,] [A,,A,]>[A,,A,] | [E,G,]4 [E,B,]2 [E,B,]2 | %14
w: ~ ~ ~ ~ ~ ~|~ ~ ~|
 [B,,B,]3 [B,,B,] [B,,B,]>[B,,B,] [B,,B,]>[B,,B,] | [E,B,]6 z2 | %16
w: ~ ~ ~ ~ ~ ~|~|
 [E,B,]2 [G,_D]2 [A,C]>[A,C] [A,,A,C]>[A,,A,E] | [E,E]4 [E,B,]2 [E,B,]2 | %18
w: ~ ~ ~ ~ ~ ~|~ ~ ~|
 [B,,B,]3 [B,,B,] [B,,B,]>[B,,B,] [B,,B,]>[B,,A,] | G,2 G,>A, G,4 |] %20
w: ~ ~ ~ ~ ~ ~|do not fear. *|
V:4
 x8 | x8 | A,3 x5 | x8 | x8 | x8 | x8 | x8 || x8 | x8 | x8 | x8 | x8 | x8 | x8 | x8 | x8 | x8 | %18
w: ||~||||||||||||||||
 x8 | E,8 |] %20
w: ||

